assets/icons/exam-type/exam-official.svg

<svg fill="none" viewBox="0 0 24 24" xmlns="http://www.w3.org/2000/svg" class="Icon Icon-exam-official"><path d="m13 2h-7c-.53043 0-1.03914.21071-1.41421.58579-.37508.37507-.58579.88378-.58579 1.41421v16c0 .5304.21071 1.0391.58579 1.4142.37507.3751.88378.5858 1.41421.5858h12c.5304 0 1.0391-.2107 1.4142-.5858s.5858-.8838.5858-1.4142v-11z" stroke="currentColor" stroke-linecap="round" stroke-linejoin="round" stroke-width="2"/><path d="m13 2v7h7" stroke="currentColor" stroke-linecap="round" stroke-linejoin="round" stroke-width="2"/><g fill="currentColor"><ellipse cx="12.0003" cy="19.063" rx=".936347" ry=".937018"/><path clip-rule="evenodd" d="m12.0001 12.843c-.5179 0-.9378.4125-.9378.9214 0 .509-.4199.9215-.9379.9215-.51798 0-.93788-.4125-.93788-.9215 0-1.5267 1.25968-2.7644 2.81358-2.7644 1.554 0 2.8136 1.2377 2.8136 2.7644 0 1.2037-.7829 2.2277-1.8757 2.6072v.4644c0 .509-.4199.9215-.9379.9215-.5179 0-.9378-.4125-.9378-.9215v-1.2286c0-.5089.4199-.9215.9378-.9215.518 0 .9379-.4125.9379-.9215 0-.5089-.4199-.9214-.9379-.9214z" fill-rule="evenodd"/></g></svg>

<svg stroke="currentColor" viewBox="0 0 24 24" fill="none" xmlns="http://www.w3.org/2000/svg" class="Icon Icon-exam-official"> <path d="M13 2H6C5.46957 2 4.96086 2.21071 4.58579 2.58579C4.21071 2.96086 4 3.46957 4 4V20C4 20.5304 4.21071 21.0391 4.58579 21.4142C4.96086 21.7893 5.46957 22 6 22H18C18.5304 22 19.0391 21.7893 19.4142 21.4142C19.7893 21.0391 20 20.5304 20 20V9L13 2Z" stroke-width="2" stroke-linecap="round" stroke-linejoin="round"/> <path d="M13 2V9H20" stroke-width="2" stroke-linecap="round" stroke-linejoin="round"/> <ellipse cx="12.0003" cy="19.0635" rx="0.936347" ry="0.937018" fill="#383641"/> <path fill-rule="evenodd" clip-rule="evenodd" d="M12.0001 12.843C11.4822 12.843 11.0623 13.2555 11.0623 13.7644C11.0623 14.2734 10.6424 14.6859 10.1244 14.6859C9.60642 14.6859 9.18652 14.2734 9.18652 13.7644C9.18652 12.2377 10.4462 11 12.0001 11C13.5541 11 14.8137 12.2377 14.8137 13.7644C14.8137 14.9681 14.0308 15.9921 12.938 16.3716V16.836C12.938 17.345 12.5181 17.7575 12.0001 17.7575C11.4822 17.7575 11.0623 17.345 11.0623 16.836V15.6074C11.0623 15.0985 11.4822 14.6859 12.0001 14.6859C12.5181 14.6859 12.938 14.2734 12.938 13.7644C12.938 13.2555 12.5181 12.843 12.0001 12.843Z" fill="#383641"/> </svg>
